fs/text_direction_rotate_270_right_20_filled.svg

<svg viewBox="0 0 20 20" fill="none" xmlns="http://www.w3.org/2000/svg" height="1em" width="1em">
  <path d="M4.21973 5.21967C3.92684 5.51256 3.92684 5.98744 4.21973 6.28033C4.51262 6.57322 4.9875 6.57322 5.28039 6.28033L6.00006 5.56066V9.25C6.00006 9.66421 6.33585 10 6.75006 10C7.16427 10 7.50006 9.66421 7.50006 9.25V5.56066L8.21973 6.28033C8.51262 6.57322 8.9875 6.57322 9.28039 6.28033C9.57328 5.98744 9.57328 5.51256 9.28039 5.21967L7.28039 3.21967C7.13452 3.0738 6.9435 3.00057 6.75231 3L6.75006 3L6.74781 3C6.64694 3.0003 6.55075 3.02051 6.46297 3.05691C6.37451 3.09351 6.29164 3.14776 6.21973 3.21967L4.21973 5.21967ZM11.7197 5.21967C11.4268 5.51256 11.4268 5.98744 11.7197 6.28033C12.0126 6.57322 12.4875 6.57322 12.7804 6.28033L13.5001 5.56066V16.25C13.5001 16.6642 13.8358 17 14.2501 17C14.6643 17 15.0001 16.6642 15.0001 16.25V5.56066L15.7197 6.28033C16.0126 6.57322 16.4875 6.57322 16.7804 6.28033C17.0733 5.98744 17.0733 5.51256 16.7804 5.21967L14.7804 3.21967C14.4875 2.92678 14.0126 2.92678 13.7197 3.21967L11.7197 5.21967ZM3 13.5001C3 13.1934 3.18671 12.9176 3.47146 12.8037L10.9715 9.80375C11.356 9.64991 11.7925 9.83697 11.9464 10.2216C12.1002 10.6062 11.9131 11.0426 11.5285 11.1965L9.5 12.0079V14.9923L11.5285 15.8037C11.9131 15.9576 12.1002 16.3941 11.9464 16.7786C11.7925 17.1632 11.356 17.3503 10.9715 17.1965L3.47146 14.1965C3.18671 14.0826 3 13.8068 3 13.5001ZM5.76944 13.5001L8 14.3923V12.6079L5.76944 13.5001Z" fill="#212121"/>
</svg>

<svg viewBox="0 0 20 20" fill="none" xmlns="http://www.w3.org/2000/svg" height="1em" width="1em">
  <path d="M4.22 5.22a.75.75 0 0 0 1.06 1.06L6 5.56v3.69a.75.75 0 0 0 1.5 0V5.56l.72.72a.75.75 0 0 0 1.06-1.06l-2-2A.748.748 0 0 0 6.752 3h-.004a.748.748 0 0 0-.528.22l-2 2Zm7.5 0a.75.75 0 1 0 1.06 1.06l.72-.72v10.69a.75.75 0 1 0 1.5 0V5.56l.72.72a.75.75 0 0 0 1.06-1.06l-2-2a.75.75 0 0 0-1.06 0l-2 2ZM3 13.5a.75.75 0 0 1 .471-.696l7.5-3a.75.75 0 1 1 .557 1.393l-2.028.81v2.985l2.028.812a.75.75 0 0 1-.556 1.393l-7.5-3A.75.75 0 0 1 3 13.5Zm2.77 0 2.23.892v-1.784l-2.23.892Z" fill="#212121"/>
</svg>
